X: 136
T: the Surly
T: Longways for as &c.
%R: jig
B: Daniel Wright "Wright's Compleat Collection of Celebrated Country Dances" 1740 p.68
S: http://library.efdss.org/cgi-bin/dancebooks.cgi
Z: 2014 John Chambers <jc:trillian.mit.edu>
N: Repeats modified to match the "Each strain twice" instruction.
M: 6/8
L: 1/8
K: G
% - - - - - - - - - - - - - - - - - - - - - - - - -
|:\
dcB A2G | F>GA A>BA |\
dcB A2G | AFD G3 :|\
|:\
Bcd ded | dBG dBG |
ded efg | gdB g3 |\
e>fe d>ed | c>dc B2B/c/ |\
dBG AFD | G3- G3 :|
% - - - - - - - - - - - - - - - - - - - - - - - - -
%%center Each strain twice.
%%begintext align
%% The 1st Cu. lead up, and the 2d Cu. lead
%% down at the same time .| then the 1st Wo.
%% turn 2d Man :| 1st and 2d Cu. hands quite
%% round, and the two Men fall back to the
%% Wall, the two We. fall back at the same
%% time .| then right and left half round in
%% 2d Cu. place :|
%%endtext
% - - - - - - - - - - - - - - - - - - - - - - - - -
%%sep 2 4 300
